public/svg/react.svg

<svg width="212" height="192" viewBox="0 0 212 192" fill="none" xmlns="http://www.w3.org/2000/svg">
  <path
    d="M106.337 77.5234C96.1808 77.5234 87.9473 85.7205 87.9473 95.832C87.9473 105.944 96.1808 114.141 106.337 114.141C116.494 114.141 124.728 105.944 124.728 95.832C124.728 85.7205 116.494 77.5234 106.337 77.5234Z"
    fill="#00D0FF" />
  <path
    d="M201.986 95.9981C201.986 81.6244 188.617 69.018 167.329 60.7216C167.614 58.8532 167.871 57.0051 168.054 55.1907C170.154 34.5374 165.155 19.6309 153.986 13.2096C141.49 6.02614 123.84 11.24 105.993 25.4586C88.1465 11.24 70.4961 6.02614 58 13.2096C46.8314 19.6309 41.8329 34.5374 43.9326 55.1907C44.1154 57.0051 44.366 58.86 44.6573 60.7351C42.8827 61.4096 41.1421 62.1246 39.4692 62.8733C20.4642 71.3787 10 83.1556 10 95.9981C10 110.372 23.3698 122.978 44.6573 131.275C44.366 133.143 44.1154 134.991 43.9326 136.806C41.8329 157.459 46.8314 172.365 58 178.787C61.8399 180.954 66.191 182.063 70.6045 181.997C81.1839 181.997 93.5377 176.453 105.993 166.538C118.442 176.453 130.803 181.997 141.396 181.997C145.809 182.062 150.16 180.954 154 178.787C165.169 172.365 170.167 157.459 168.067 136.806C167.885 134.991 167.627 133.143 167.343 131.275C188.63 122.992 202 110.365 202 95.9981M141.314 19.1048C144.152 19.0366 146.957 19.721 149.442 21.0878C157.197 25.5463 160.678 37.6401 158.985 54.2666C158.87 55.3998 158.734 56.5464 158.572 57.6998C149.72 55.0452 140.656 53.1519 131.48 52.0407C125.917 44.6768 119.731 37.801 112.99 31.4886C123.576 23.3406 133.512 19.1048 141.307 19.1048M137.67 114.21C134.245 120.131 130.515 125.872 126.495 131.41C119.681 132.107 112.836 132.453 105.986 132.448C99.1392 132.453 92.2961 132.106 85.4847 131.41C81.4756 125.871 77.7568 120.13 74.3432 114.21C70.9178 108.305 67.8048 102.226 65.0168 95.9981C67.8048 89.7699 70.9178 83.6911 74.3432 77.7865C77.7514 71.8896 81.4588 66.1691 85.4508 60.6474C92.2747 59.9331 99.1317 59.5774 105.993 59.5816C112.841 59.5776 119.683 59.9243 126.495 60.6204C130.501 66.1506 134.222 71.8801 137.643 77.7865C141.066 83.6925 144.179 89.7712 146.97 95.9981C144.179 102.225 141.066 108.304 137.643 114.21M151.629 107.465C153.779 113.302 155.544 119.273 156.912 125.339C150.973 127.183 144.919 128.636 138.788 129.69C141.118 126.191 143.375 122.551 145.561 118.769C147.721 115.033 149.747 111.262 151.657 107.492M93.1314 141.143C97.3441 141.399 101.645 141.547 106 141.547C110.355 141.547 114.683 141.399 118.902 141.143C114.902 145.915 110.592 150.421 106 154.633C101.418 150.422 97.1194 145.915 93.1314 141.143ZM73.2053 129.676C67.0727 128.627 61.0159 127.179 55.0741 125.339C56.4372 119.282 58.1951 113.321 60.3367 107.492C62.2196 111.262 64.2379 115.033 66.4323 118.769C68.6268 122.506 70.8957 126.189 73.2053 129.69M60.3367 84.4978C58.2028 78.6905 56.4494 72.7514 55.0876 66.7179C61.0147 64.8762 67.0553 63.4185 73.1714 62.3539C70.8551 65.8411 68.5861 69.4564 66.3985 73.2269C64.2108 76.9974 62.2128 80.7206 60.3028 84.4978M118.862 50.8469C114.649 50.5906 110.348 50.4422 105.959 50.4422C101.607 50.4422 97.3171 50.5771 93.0907 50.8469C97.0787 46.0742 101.378 41.5678 105.959 37.3568C110.553 41.5666 114.863 46.0731 118.862 50.8469ZM145.547 73.2269C143.353 69.4407 141.084 65.7984 138.741 62.2999C144.887 63.3533 150.958 64.8089 156.912 66.6572C155.546 72.713 153.788 78.6746 151.65 84.5046C149.767 80.7341 147.742 76.9636 145.554 73.2336M53.0286 54.2733C51.3151 37.6536 54.8167 25.553 62.565 21.0945C65.0506 19.7298 67.855 19.0456 70.6925 19.1115C78.4882 19.1115 88.4242 23.3474 99.0103 31.4954C92.2645 37.8122 86.0739 44.6925 80.5066 52.061C71.3326 53.1774 62.2697 55.0637 53.4147 57.6998C53.2589 56.5464 53.1167 55.4065 53.0083 54.2733M43.2214 71.1764C44.2644 70.7267 45.3278 70.2771 46.4115 69.8274C48.5419 78.7784 51.4308 87.5333 55.047 95.9981C51.4239 104.48 48.5327 113.253 46.4047 122.223C29.1472 115.174 19.1435 105.407 19.1435 95.9981C19.1435 87.0812 27.9484 78.0361 43.2214 71.1764ZM62.565 170.902C54.8167 166.443 51.3151 154.343 53.0286 137.723C53.137 136.59 53.2792 135.45 53.435 134.29C62.2867 136.944 71.3505 138.837 80.5269 139.949C86.0915 147.315 92.2773 154.196 99.0171 160.514C84.2588 171.866 70.7738 175.61 62.5853 170.902M158.978 137.723C160.671 154.349 157.19 166.443 149.435 170.902C141.253 175.623 127.762 171.866 113.01 160.514C119.748 154.195 125.931 147.315 131.493 139.949C140.67 138.838 149.734 136.944 158.585 134.29C158.748 135.45 158.883 136.59 158.998 137.723M165.622 122.209C163.488 113.245 160.595 104.476 156.973 95.9981C160.593 87.5156 163.485 78.7426 165.616 69.7734C182.839 76.822 192.87 86.5888 192.87 95.9981C192.87 105.407 182.866 115.174 165.609 122.223"
    fill="#00D0FF" />
</svg>

<svg xmlns="http://www.w3.org/2000/svg" width="212" height="192" fill="none" viewBox="0 0 212 192"><path fill="#00d0ff" d="M106.337 77.523c-10.156 0-18.39 8.198-18.39 18.309s8.234 18.309 18.39 18.309 18.391-8.197 18.391-18.309c0-10.111-8.234-18.309-18.391-18.309"/><path fill="#00d0ff" d="M201.986 95.998c0-14.374-13.369-26.98-34.657-35.276.285-1.869.542-3.717.725-5.531 2.1-20.654-2.899-35.56-14.068-41.981-12.496-7.184-30.146-1.97-47.993 12.249C88.147 11.24 70.496 6.026 58 13.209c-11.169 6.422-16.167 21.328-14.067 41.982.182 1.814.433 3.669.724 5.544a98 98 0 0 0-5.188 2.138C20.464 71.38 10 83.156 10 95.998c0 14.374 13.37 26.98 34.657 35.277a103 103 0 0 0-.724 5.531c-2.1 20.653 2.898 35.559 14.067 41.981a24.9 24.9 0 0 0 12.605 3.21c10.579 0 22.933-5.544 35.388-15.459 12.449 9.915 24.81 15.459 35.403 15.459a24.9 24.9 0 0 0 12.604-3.21c11.169-6.422 16.167-21.328 14.067-41.981-.182-1.815-.44-3.663-.724-5.531C188.63 122.992 202 110.365 202 95.998m-60.686-76.893a16.07 16.07 0 0 1 8.128 1.983c7.755 4.458 11.236 16.552 9.543 33.179a90 90 0 0 1-.413 3.433 162 162 0 0 0-27.092-5.66 161.6 161.6 0 0 0-18.49-20.551c10.586-8.148 20.522-12.384 28.317-12.384m-3.637 95.105a198 198 0 0 1-11.175 17.2 200 200 0 0 1-20.509 1.038c-6.847.005-13.69-.342-20.501-1.038a198 198 0 0 1-11.142-17.2 195 195 0 0 1-9.326-18.212 195 195 0 0 1 9.326-18.211 201 201 0 0 1 11.108-17.14c6.824-.714 13.68-1.07 20.542-1.065a201 201 0 0 1 20.502 1.038 201 201 0 0 1 11.148 17.167 197 197 0 0 1 9.327 18.211 197 197 0 0 1-9.327 18.212m13.986-6.745a142 142 0 0 1 5.283 17.874 143 143 0 0 1-18.124 4.351 203 203 0 0 0 6.773-10.921 232 232 0 0 0 6.096-11.277m-58.526 33.651c4.213.256 8.514.404 12.869.404s8.683-.148 12.902-.404c-4 4.772-8.31 9.278-12.902 13.49a142 142 0 0 1-12.869-13.49m-19.926-11.467a142.5 142.5 0 0 1-18.13-4.337 142 142 0 0 1 5.262-17.847 189 189 0 0 0 6.095 11.277 248 248 0 0 0 6.773 10.921M60.337 84.498a143 143 0 0 1-5.25-17.78 144 144 0 0 1 18.084-4.364 211 211 0 0 0-6.773 10.873 221 221 0 0 0-6.095 11.27m58.559-33.65a212 212 0 0 0-12.903-.405q-6.528 0-12.868.405a142 142 0 0 1 12.868-13.49 142 142 0 0 1 12.903 13.49m26.685 22.38a198 198 0 0 0-6.806-10.927 142.5 142.5 0 0 1 18.171 4.357 144 144 0 0 1-5.262 17.848 190 190 0 0 0-6.096-11.271m-92.525-18.96c-1.714-16.62 1.788-28.721 9.536-33.18a16.1 16.1 0 0 1 8.127-1.983c7.796 0 17.732 4.236 28.318 12.384a162 162 0 0 0-18.503 20.566A164.7 164.7 0 0 0 53.415 57.7a89 89 0 0 1-.407-3.427m-9.787 16.903q1.565-.675 3.19-1.349a162 162 0 0 0 8.636 26.171 162 162 0 0 0-8.642 26.225c-17.258-7.049-27.261-16.816-27.261-26.225 0-8.917 8.804-17.962 24.077-24.822m19.344 99.726c-7.748-4.459-11.25-16.559-9.536-33.179.108-1.133.25-2.273.406-3.433a162.3 162.3 0 0 0 27.092 5.659 162 162 0 0 0 18.49 20.565c-14.758 11.352-28.243 15.096-36.432 10.388m96.393-33.179c1.693 16.626-1.788 28.72-9.543 33.179-8.182 4.721-21.673.964-36.425-10.388a162 162 0 0 0 18.483-20.565 162 162 0 0 0 27.092-5.659 90 90 0 0 1 .413 3.433m6.624-15.514a162.5 162.5 0 0 0-8.649-26.21 162.5 162.5 0 0 0 8.643-26.226c17.223 7.049 27.254 16.816 27.254 26.225s-10.004 19.176-27.261 26.225"/></svg>
